X:1
T: Mollie McCarthy
C:
R:Reel
Q: 232
K:D
M:4/4
L:1/8
|:DA FA DA FA|DA FA GE E2|DA FA DA FA|dB AG FD D2|
DA FA DA FA|DA FA GE E2|DA FA DA FA|dB AG FD D2|
af df gf ed|ge fd Be e2|af df gf ed|fa eg fd d2|
af df gf ed|ge fd Be e2|af ge fd ec|dB AG FD D2:|
